Numix-GalliumOS/16/mimetypes/text-x-fortran.svg

<?xml version="1.0" encoding="UTF-8" standalone="no"?>
<svg
   xmlns:dc="http://purl.org/dc/elements/1.1/"
   xmlns:cc="http://creativecommons.org/ns#"
   xmlns:rdf="http://www.w3.org/1999/02/22-rdf-syntax-ns#"
   xmlns:svg="http://www.w3.org/2000/svg"
   xmlns="http://www.w3.org/2000/svg"
   xmlns:sodipodi="http://sodipodi.sourceforge.net/DTD/sodipodi-0.dtd"
   xmlns:inkscape="http://www.inkscape.org/namespaces/inkscape"
   width="16"
   height="16"
   viewBox="0 0 16 16"
   id="svg2"
   version="1.1"
   inkscape:version="0.91 r13725"
   sodipodi:docname="text-x-fortran.svg">
  <metadata
     id="metadata30">
    <rdf:RDF>
      <cc:Work
         rdf:about="">
        <dc:format>image/svg+xml</dc:format>
        <dc:type
           rdf:resource="http://purl.org/dc/dcmitype/StillImage" />
        <dc:title />
      </cc:Work>
    </rdf:RDF>
  </metadata>
  <defs
     id="defs28" />
  <sodipodi:namedview
     pagecolor="#ffffff"
     bordercolor="#666666"
     borderopacity="1"
     objecttolerance="10"
     gridtolerance="10"
     guidetolerance="10"
     inkscape:pageopacity="0"
     inkscape:pageshadow="2"
     inkscape:window-width="1366"
     inkscape:window-height="713"
     id="namedview26"
     showgrid="false"
     inkscape:zoom="1"
     inkscape:cx="5.1429421"
     inkscape:cy="5.8907395"
     inkscape:window-x="0"
     inkscape:window-y="28"
     inkscape:window-maximized="1"
     inkscape:current-layer="svg2">
    <inkscape:grid
       type="xygrid"
       id="grid3336" />
  </sodipodi:namedview>
  <path
     style="fill:#2d2d2d;fill-opacity:1"
     d="M 2.667969,-4.4634e-4 C 2.324219,-4.4634e-4 2,0.33781166 2,0.6964464 L 2,15.303108 C 2,15.641365 2.34375,16 2.667969,16 l 10.664062,0 C 13.65625,16 14,15.641365 14,15.303108 L 14,3.9995535 10,-4.4634e-4 z"
     id="path4-9"
     inkscape:connector-curvature="0"
     sodipodi:nodetypes="ssssssccs" />
  <path
     style="fill:#000000;fill-opacity:0.19599998"
     d="m 10.583223,3.3315845 0.0154,0.01953 0.04005,-0.01953 z m 0.02978,0.667969 3.387,3.664062 0,-3.664062 z"
     id="path6-9"
     inkscape:connector-curvature="0"
     sodipodi:nodetypes="cccccccc" />
  <path
     style="fill:#ffffff;fill-opacity:0.39200003"
     d="m 10,-4.4634e-4 3.996396,3.99999984 -3.383784,0 C 10.313513,3.9995535 10,3.6824365 10,3.3833375 z"
     id="path8-0"
     inkscape:connector-curvature="0"
     sodipodi:nodetypes="ccssc" />
  <path
     inkscape:connector-curvature="0"
     style="fill:#dcdcdc;fill-opacity:1"
     d="M 5,6.0085561 5,6.7 C 6,6.7 6,7 6,8 l 0,3 c 0,1 0,1.3 -1,1.3 l 0,0.700003 3,0 L 8,12.3 C 7,12.3 7,12 7,11 l -2e-6,-1 L 7.5,10 c 0.4,0 0.8001692,0 0.8,1 L 9,11 9,8 8.3,8 C 8.3001692,9 7.9,9 7.5,9 L 7.000002,9 7,7 9,7 c 1,0 1.3,0 1.3,1 L 11,8 10.999846,6 Z"
     id="path3342"
     inkscape:transform-center-x="7.75"
     inkscape:transform-center-y="5.5734184"
     sodipodi:nodetypes="ccccccccccccccccccccccc" />
</svg>

<svg xmlns="http://www.w3.org/2000/svg" viewBox="0 0 16 16">
 <path d="m 2.668 0 c -0.344 0 -0.668 0.338 -0.668 0.697 l 0 14.607 c 0 0.338 0.344 0.697 0.668 0.697 l 10.664 0 c 0.324 0 0.668 -0.359 0.668 -0.697 l 0 -11.304 -4 -4 z" style="fill:#2d2d2d;fill-opacity:1"/>
 <path d="m 10.583 3.332 0.015 0.02 0.04 -0.02 z m 0.03 0.668 3.387 3.664 0 -3.664 z" style="fill:#000;fill-opacity:0.196"/>
 <path d="m 10 0 3.996 4 -3.384 0 c -0.299 0 -0.613 -0.317 -0.613 -0.616 z" style="fill:#fff;fill-opacity:0.392"/>
 <path d="m 5 6.01 0 0.691 c 1 0 1 0.3 1 1.3 l 0 3 c 0 1 0 1.3 -1 1.3 l 0 0.7 3 0 l 0 -0.7 c -1 0 -1 -0.3 -1 -1.3 l 0 -1 l 0.5 0 c 0.4 0 0.8 0 0.8 1 l 0.7 0 0 -3 -0.7 0 c 0 1 -0.4 1 -0.8 1 l -0.5 0 0 -2 2 0 c 1 0 1.3 0 1.3 1 l 0.7 0 0 -2" style="fill:#dcdcdc;fill-opacity:1"/>
</svg>
